X:1
T:Title
%%score ( 1 2 ) ( 3 4 )
L:1/8
Q:1/4=90
M:6/8
K:Bb
V:1 treble nm="Grand Piano, Soprano"
V:2 treble 
V:3 bass nm="Choir Pad, From Far Away"
V:4 bass 
V:1
 F F2 [FB][Fd][Fd] | d/c/[GB][FA] [EG] [DF]2 | F[FB][GB] [FA][FA][FA] | [FA][GA][FA] [=EA] [FA]2 | %4
w: By~John~Bacchus~Dykes~(1823\-1876) * * * *||||
 F[DF][DF] [DB] [Dd]2 | [=Ec][EB][EA] [EG] [Fc]2- | [Fc][F=B][FB] [FB]cd | [Fc][FB][FA] [=EG] F2- | %8
w: ||||
 F F2- F/ z/ F[EF] | [DF] [CF]2 z3 | F B2 B A2 | A G2 G F2 | FEE EDC | B, F2 F F2 | %14
w: ||||||
 F [Bd]2 [Bd] [Af]2 | [Af] [GB]2 [GB] [^Fd]2 | [^Fd]GG [EA] [DB]2 | [Ge] d2- d2 c | B d2- dcB | %19
w: |||||
 [EA] B2- B- [EB-]2 | [CB-] [DB]2- [DB]3- | [DB]3 z3 |] %22
w: |||
V:2
 x6 | .F3 z3 | x6 | x6 | x6 | x6 | z3 z F2 | x6 | x6 | x6 | x6 | x6 | x6 | x6 | x6 | x6 | x6 | %17
 z F2- F3- | F E2- E3/2 z/ z | z D2- D/ z/ z z | x6 | x6 |] %22
V:3
 [B,D] [B,D]2 [B,D][B,,B,][B,,B,] | [D,B,] [F,B,]2 [G,B,][K:treble] [B,D]2 | %2
 [A,D][G,D][G,D] [G,D][A,D][A,_D] | [A,D][A,=E][A,D] [A,_D] =D2 | [CD][K:bass]B,B, [A,B,] [G,B,]2 | %5
 [G,C][G,_D][A,D] [B,D][A,C][G,B,] | [F,A,][D,_A,][D,G,] [D,A,] [C,=A,]2 | %7
 [C,A,][C,G,][C,A,] [C,B,] [F,A,]2- | [F,A,] F,2- F,/ z/ [F,D][F,C] | [F,B,] [G,B,]2 z3 | %10
 F, B,2 B, A,2 | A, G,2 G, F,2 | F,E,E, E,D,C, | B,, F,2 F, [F,,F,]2 | z .D2 z[K:bass] .E2 | %15
 [F,C]G,-[G,C] [G,D]CB, | [D,A,][E,G,][E,G,] [C,^F,] G,2 | [E,B,] B,2 C D2- | D A,2 B, C2 | %19
 [F,C] B,2- B, G,2 | E, F,2- F,3- | F,3 z3 |] %22
V:4
 x6 | x4[K:treble] x2 | x6 | x6 | x[K:bass] x5 | x6 | x6 | x6 | x6 | x6 | x6 | x6 | x6 | x6 | %14
 [F,F]B,-[B,E] [B,F][K:bass]F,-[F,D] | z .B,2 z D,2 | x6 | z F,2- F,3- | F,6 | z B,,2- B,,3- | %20
 B,,6- | B,,3 z3 |] %22

